X: 21946
T: Kitty Hayes'
R: hornpipe
M: 4/4
K: Eminor
|:BEED E2DE|GABG A2GA|BEED E2DE|GABG A2d^c|
BEED E2DE|GABG AAGA|B2BA GEDE|G2GF G2GA:|
|:BABd e2eg|fedf edBA|BA (3Bcd e2eg|fe (3def e2ed|
edBA d2ed|BAGA BAGE|B2BA GEDE|G2GF G2GA:|

